dist/assets/edTech-B0uCzmBX.svg

<svg width="51" height="71" viewBox="0 0 51 71" fill="none" xmlns="http://www.w3.org/2000/svg">
<path d="M5.82983 64.116V10.3921L13.391 46.2081L42.0438 65.3099L5.82983 64.116Z" fill="#1F9D96" fill-opacity="0.82"/>
<foreignObject x="-34.7615" y="-34.5767" width="120.58" height="140.478"><div xmlns="http://www.w3.org/1999/xhtml" style="backdrop-filter:blur(17.51px);clip-path:url(#bgblur_0_214_1426_clip_path);height:100%;width:100%"></div></foreignObject><g filter="url(#filter0_i_214_1426)" data-figma-bg-blur-radius="35.0201">
<path d="M0.258545 8.40247C0.258545 4.00678 3.82196 0.443359 8.21765 0.443359H33.6137C35.5821 0.443359 37.4806 1.17275 38.9427 2.49065L48.1687 10.8071C49.843 12.3163 50.7989 14.4648 50.7989 16.7189V62.9223C50.7989 67.318 47.2354 70.8814 42.8398 70.8814H8.21766C3.82197 70.8814 0.258545 67.318 0.258545 62.9223V8.40247Z" fill="white" fill-opacity="0.02"/>
</g>
<g filter="url(#filter1_f_214_1426)">
<rect x="8.61523" y="47.8003" width="33.4282" height="4.37751" rx="2.18875" fill="#1F9D96"/>
</g>
<g filter="url(#filter2_f_214_1426)">
<rect x="8.61523" y="54.9634" width="33.4282" height="4.37751" rx="2.18875" fill="#1F9D96"/>
</g>
<foreignObject x="3.0881" y="-26.6255" width="71.9844" height="74.3174"><div xmlns="http://www.w3.org/1999/xhtml" style="backdrop-filter:blur(17.11px);clip-path:url(#bgblur_1_214_1426_clip_path);height:100%;width:100%"></div></foreignObject><g filter="url(#filter3_ii_214_1426)" data-figma-bg-blur-radius="34.2242">
<path d="M37.3649 12.6817L37.3123 8.40553C37.3019 7.55414 38.4554 7.28315 38.8251 8.05012L40.7688 12.0819C41.0046 12.5709 40.6923 13.1473 40.1539 13.2169L38.2627 13.4612C37.7905 13.5222 37.3707 13.1578 37.3649 12.6817Z" fill="#1F9D96" fill-opacity="0.82"/>
</g>
<foreignObject x="1.9028" y="-32.7554" width="81.9503" height="81.3072"><div xmlns="http://www.w3.org/1999/xhtml" style="backdrop-filter:blur(17.11px);clip-path:url(#bgblur_2_214_1426_clip_path);height:100%;width:100%"></div></foreignObject><g filter="url(#filter4_ii_214_1426)" data-figma-bg-blur-radius="34.2242">
<path d="M36.4491 13.5545L36.1272 2.28919C36.1073 1.59128 36.9315 1.20774 37.4526 1.67247L49.3616 12.294C49.8912 12.7664 49.5846 13.6433 48.876 13.6827L37.2888 14.3264C36.8415 14.3513 36.4619 14.0023 36.4491 13.5545Z" fill="white" fill-opacity="0.02"/>
</g>
<defs>
<filter id="filter0_i_214_1426" x="-34.7615" y="-34.5767" width="120.58" height="140.478" filterUnits="userSpaceOnUse" color-interpolation-filters="sRGB">
<feFlood flood-opacity="0" result="BackgroundImageFix"/>
<feBlend mode="normal" in="SourceGraphic" in2="BackgroundImageFix" result="shape"/>
<feColorMatrix in="SourceAlpha" type="matrix" values="0 0 0 0 0 0 0 0 0 0 0 0 0 0 0 0 0 0 127 0" result="hardAlpha"/>
<feOffset dy="0.79591"/>
<feGaussianBlur stdDeviation="0.397955"/>
<feComposite in2="hardAlpha" operator="arithmetic" k2="-1" k3="1"/>
<feColorMatrix type="matrix" values="0 0 0 0 1 0 0 0 0 1 0 0 0 0 1 0 0 0 0.3 0"/>
<feBlend mode="normal" in2="shape" result="effect1_innerShadow_214_1426"/>
</filter>
<clipPath id="bgblur_0_214_1426_clip_path" transform="translate(34.7615 34.5767)"><path d="M0.258545 8.40247C0.258545 4.00678 3.82196 0.443359 8.21765 0.443359H33.6137C35.5821 0.443359 37.4806 1.17275 38.9427 2.49065L48.1687 10.8071C49.843 12.3163 50.7989 14.4648 50.7989 16.7189V62.9223C50.7989 67.318 47.2354 70.8814 42.8398 70.8814H8.21766C3.82197 70.8814 0.258545 67.318 0.258545 62.9223V8.40247Z"/>
</clipPath><filter id="filter1_f_214_1426" x="6.2275" y="45.4126" width="38.2037" height="9.1529" filterUnits="userSpaceOnUse" color-interpolation-filters="sRGB">
<feFlood flood-opacity="0" result="BackgroundImageFix"/>
<feBlend mode="normal" in="SourceGraphic" in2="BackgroundImageFix" result="shape"/>
<feGaussianBlur stdDeviation="1.19387" result="effect1_foregroundBlur_214_1426"/>
</filter>
<filter id="filter2_f_214_1426" x="6.2275" y="52.5756" width="38.2037" height="9.1529" filterUnits="userSpaceOnUse" color-interpolation-filters="sRGB">
<feFlood flood-opacity="0" result="BackgroundImageFix"/>
<feBlend mode="normal" in="SourceGraphic" in2="BackgroundImageFix" result="shape"/>
<feGaussianBlur stdDeviation="1.19387" result="effect1_foregroundBlur_214_1426"/>
</filter>
<filter id="filter3_ii_214_1426" x="3.0881" y="-26.6255" width="71.9844" height="74.3174" filterUnits="userSpaceOnUse" color-interpolation-filters="sRGB">
<feFlood flood-opacity="0" result="BackgroundImageFix"/>
<feBlend mode="normal" in="SourceGraphic" in2="BackgroundImageFix" result="shape"/>
<feColorMatrix in="SourceAlpha" type="matrix" values="0 0 0 0 0 0 0 0 0 0 0 0 0 0 0 0 0 0 127 0" result="hardAlpha"/>
<feOffset dy="1.59182"/>
<feGaussianBlur stdDeviation="0.79591"/>
<feComposite in2="hardAlpha" operator="arithmetic" k2="-1" k3="1"/>
<feColorMatrix type="matrix" values="0 0 0 0 1 0 0 0 0 1 0 0 0 0 1 0 0 0 0.15 0"/>
<feBlend mode="normal" in2="shape" result="effect1_innerShadow_214_1426"/>
<feColorMatrix in="SourceAlpha" type="matrix" values="0 0 0 0 0 0 0 0 0 0 0 0 0 0 0 0 0 0 127 0" result="hardAlpha"/>
<feOffset/>
<feGaussianBlur stdDeviation="13.5305"/>
<feComposite in2="hardAlpha" operator="arithmetic" k2="-1" k3="1"/>
<feColorMatrix type="matrix" values="0 0 0 0 1 0 0 0 0 1 0 0 0 0 1 0 0 0 0.05 0"/>
<feBlend mode="normal" in2="effect1_innerShadow_214_1426" result="effect2_innerShadow_214_1426"/>
</filter>
<clipPath id="bgblur_1_214_1426_clip_path" transform="translate(-3.0881 26.6255)"><path d="M37.3649 12.6817L37.3123 8.40553C37.3019 7.55414 38.4554 7.28315 38.8251 8.05012L40.7688 12.0819C41.0046 12.5709 40.6923 13.1473 40.1539 13.2169L38.2627 13.4612C37.7905 13.5222 37.3707 13.1578 37.3649 12.6817Z"/>
</clipPath><filter id="filter4_ii_214_1426" x="1.9028" y="-32.7554" width="81.9503" height="81.3072" filterUnits="userSpaceOnUse" color-interpolation-filters="sRGB">
<feFlood flood-opacity="0" result="BackgroundImageFix"/>
<feBlend mode="normal" in="SourceGraphic" in2="BackgroundImageFix" result="shape"/>
<feColorMatrix in="SourceAlpha" type="matrix" values="0 0 0 0 0 0 0 0 0 0 0 0 0 0 0 0 0 0 127 0" result="hardAlpha"/>
<feOffset dy="1.59182"/>
<feGaussianBlur stdDeviation="0.79591"/>
<feComposite in2="hardAlpha" operator="arithmetic" k2="-1" k3="1"/>
<feColorMatrix type="matrix" values="0 0 0 0 1 0 0 0 0 1 0 0 0 0 1 0 0 0 0.15 0"/>
<feBlend mode="normal" in2="shape" result="effect1_innerShadow_214_1426"/>
<feColorMatrix in="SourceAlpha" type="matrix" values="0 0 0 0 0 0 0 0 0 0 0 0 0 0 0 0 0 0 127 0" result="hardAlpha"/>
<feOffset/>
<feGaussianBlur stdDeviation="13.5305"/>
<feComposite in2="hardAlpha" operator="arithmetic" k2="-1" k3="1"/>
<feColorMatrix type="matrix" values="0 0 0 0 1 0 0 0 0 1 0 0 0 0 1 0 0 0 0.05 0"/>
<feBlend mode="normal" in2="effect1_innerShadow_214_1426" result="effect2_innerShadow_214_1426"/>
</filter>
<clipPath id="bgblur_2_214_1426_clip_path" transform="translate(-1.9028 32.7554)"><path d="M36.4491 13.5545L36.1272 2.28919C36.1073 1.59128 36.9315 1.20774 37.4526 1.67247L49.3616 12.294C49.8912 12.7664 49.5846 13.6433 48.876 13.6827L37.2888 14.3264C36.8415 14.3513 36.4619 14.0023 36.4491 13.5545Z"/>
</clipPath></defs>
</svg>

<svg xmlns="http://www.w3.org/2000/svg" width="51" height="71"><path fill-opacity=".82" d="M5.83 64.116V10.392l7.561 35.816L42.044 65.31z"/><foreignObject width="120.58" height="140.478" x="-34.761" y="-34.577"><div xmlns="http://www.w3.org/1999/xhtml" style="backdrop-filter:blur(17.51px);clip-path:url(#a);height:100%;width:100%"/></foreignObject><g data-figma-bg-blur-radius="35.02" filter="url(#b)"><path fill-opacity=".02" d="M.259 8.402A7.96 7.96 0 0 1 8.218.443h25.396a7.96 7.96 0 0 1 5.329 2.048l9.226 8.316a7.96 7.96 0 0 1 2.63 5.912v46.203a7.96 7.96 0 0 1-7.96 7.96H8.219a7.96 7.96 0 0 1-7.96-7.96z"/></g><g filter="url(#c)"><rect width="33.428" height="4.378" x="8.615" y="47.8" rx="2.189"/></g><g filter="url(#d)"><rect width="33.428" height="4.378" x="8.615" y="54.963" rx="2.189"/></g><foreignObject width="71.984" height="74.317" x="3.088" y="-26.625"><div xmlns="http://www.w3.org/1999/xhtml" style="backdrop-filter:blur(17.11px);clip-path:url(#e);height:100%;width:100%"/></foreignObject><g data-figma-bg-blur-radius="34.224" filter="url(#f)"><path fill-opacity=".82" d="m37.365 12.682-.053-4.276c-.01-.852 1.143-1.123 1.513-.356l1.944 4.032a.796.796 0 0 1-.615 1.135l-1.891.244a.796.796 0 0 1-.898-.78"/></g><foreignObject width="81.95" height="81.307" x="1.903" y="-32.755"><div xmlns="http://www.w3.org/1999/xhtml" style="backdrop-filter:blur(17.11px);clip-path:url(#g);height:100%;width:100%"/></foreignObject><g data-figma-bg-blur-radius="34.224" filter="url(#h)"><path fill-opacity=".02" d="m36.45 13.555-.323-11.266a.796.796 0 0 1 1.326-.617l11.909 10.622a.796.796 0 0 1-.486 1.389l-11.587.643a.796.796 0 0 1-.84-.771"/></g><defs><filter id="b" width="120.58" height="140.478" x="-34.761" y="-34.577" color-interpolation-filters="sRGB" filterUnits="userSpaceOnUse"><feFlood flood-opacity="0" result="BackgroundImageFix"/><feBlend in="SourceGraphic" in2="BackgroundImageFix" result="shape"/><feColorMatrix in="SourceAlpha" result="hardAlpha" values="0 0 0 0 0 0 0 0 0 0 0 0 0 0 0 0 0 0 127 0"/><feOffset dy=".796"/><feGaussianBlur stdDeviation=".398"/><feComposite in2="hardAlpha" k2="-1" k3="1" operator="arithmetic"/><feColorMatrix values="0 0 0 0 1 0 0 0 0 1 0 0 0 0 1 0 0 0 0.3 0"/><feBlend in2="shape" result="effect1_innerShadow_214_1426"/></filter><filter id="c" width="38.204" height="9.153" x="6.228" y="45.413" color-interpolation-filters="sRGB" filterUnits="userSpaceOnUse"><feFlood flood-opacity="0" result="BackgroundImageFix"/><feBlend in="SourceGraphic" in2="BackgroundImageFix" result="shape"/><feGaussianBlur result="effect1_foregroundBlur_214_1426" stdDeviation="1.194"/></filter><filter id="d" width="38.204" height="9.153" x="6.228" y="52.576" color-interpolation-filters="sRGB" filterUnits="userSpaceOnUse"><feFlood flood-opacity="0" result="BackgroundImageFix"/><feBlend in="SourceGraphic" in2="BackgroundImageFix" result="shape"/><feGaussianBlur result="effect1_foregroundBlur_214_1426" stdDeviation="1.194"/></filter><filter id="f" width="71.984" height="74.317" x="3.088" y="-26.625" color-interpolation-filters="sRGB" filterUnits="userSpaceOnUse"><feFlood flood-opacity="0" result="BackgroundImageFix"/><feBlend in="SourceGraphic" in2="BackgroundImageFix" result="shape"/><feColorMatrix in="SourceAlpha" result="hardAlpha" values="0 0 0 0 0 0 0 0 0 0 0 0 0 0 0 0 0 0 127 0"/><feOffset dy="1.592"/><feGaussianBlur stdDeviation=".796"/><feComposite in2="hardAlpha" k2="-1" k3="1" operator="arithmetic"/><feColorMatrix values="0 0 0 0 1 0 0 0 0 1 0 0 0 0 1 0 0 0 0.15 0"/><feBlend in2="shape" result="effect1_innerShadow_214_1426"/><feColorMatrix in="SourceAlpha" result="hardAlpha" values="0 0 0 0 0 0 0 0 0 0 0 0 0 0 0 0 0 0 127 0"/><feOffset/><feGaussianBlur stdDeviation="13.53"/><feComposite in2="hardAlpha" k2="-1" k3="1" operator="arithmetic"/><feColorMatrix values="0 0 0 0 1 0 0 0 0 1 0 0 0 0 1 0 0 0 0.05 0"/><feBlend in2="effect1_innerShadow_214_1426" result="effect2_innerShadow_214_1426"/></filter><filter id="h" width="81.95" height="81.307" x="1.903" y="-32.755" color-interpolation-filters="sRGB" filterUnits="userSpaceOnUse"><feFlood flood-opacity="0" result="BackgroundImageFix"/><feBlend in="SourceGraphic" in2="BackgroundImageFix" result="shape"/><feColorMatrix in="SourceAlpha" result="hardAlpha" values="0 0 0 0 0 0 0 0 0 0 0 0 0 0 0 0 0 0 127 0"/><feOffset dy="1.592"/><feGaussianBlur stdDeviation=".796"/><feComposite in2="hardAlpha" k2="-1" k3="1" operator="arithmetic"/><feColorMatrix values="0 0 0 0 1 0 0 0 0 1 0 0 0 0 1 0 0 0 0.15 0"/><feBlend in2="shape" result="effect1_innerShadow_214_1426"/><feColorMatrix in="SourceAlpha" result="hardAlpha" values="0 0 0 0 0 0 0 0 0 0 0 0 0 0 0 0 0 0 127 0"/><feOffset/><feGaussianBlur stdDeviation="13.53"/><feComposite in2="hardAlpha" k2="-1" k3="1" operator="arithmetic"/><feColorMatrix values="0 0 0 0 1 0 0 0 0 1 0 0 0 0 1 0 0 0 0.05 0"/><feBlend in2="effect1_innerShadow_214_1426" result="effect2_innerShadow_214_1426"/></filter><clipPath id="a" transform="translate(34.761 34.577)"><path d="M.259 8.402A7.96 7.96 0 0 1 8.218.443h25.396a7.96 7.96 0 0 1 5.329 2.048l9.226 8.316a7.96 7.96 0 0 1 2.63 5.912v46.203a7.96 7.96 0 0 1-7.96 7.96H8.219a7.96 7.96 0 0 1-7.96-7.96z"/></clipPath><clipPath id="e" transform="translate(-3.088 26.625)"><path d="m37.365 12.682-.053-4.276c-.01-.852 1.143-1.123 1.513-.356l1.944 4.032a.796.796 0 0 1-.615 1.135l-1.891.244a.796.796 0 0 1-.898-.78"/></clipPath><clipPath id="g" transform="translate(-1.903 32.755)"><path d="m36.45 13.555-.323-11.266a.796.796 0 0 1 1.326-.617l11.909 10.622a.796.796 0 0 1-.486 1.389l-11.587.643a.796.796 0 0 1-.84-.771"/></clipPath></defs></svg>
